static/images/contact/call-add.svg

<svg fill="none" height="28" viewBox="0 0 28 28" width="28" xmlns="http://www.w3.org/2000/svg"><g fill="#4d4d4d"><path d="m20.359 26.5418c-1.3183 0-2.7067-.315-4.1417-.9216-1.4-.595-2.8116-1.4117-4.1883-2.4034-1.3767-1.0033-2.69502-2.135-3.93168-3.36-1.23667-1.2483-2.35667-2.5666-3.34834-3.92-1.00333-1.4-1.80833-2.7883-2.38-4.1533-.60666-1.435-.91-2.835-.91-4.15334 0-.91.16334-1.77333.47834-2.57833.33833-.84.85166-1.59833 1.56333-2.26333.89833-.875 1.925-1.33 3.02167-1.33.455 0 .92166.105 1.31833.29166.455.21.84.525 1.12.945l2.70665 3.815c.245.33834.4317.665.56.99167.1517.35.2334.7.2334 1.03833 0 .44334-.1284.875-.3734 1.28334-.175.315-.4433.6533-.7817.9917l-.7933.8283c.0117.035.0234.0583.035.0817.14.245.42.665.9567 1.295.56.6533 1.1083 1.2366 1.645 1.7966.7.6884 1.26 1.2134 1.7967 1.6567.665.56 1.0966.84 1.3533.9683l-.0233.0584.8516-.84c.3617-.3617.7117-.63 1.05-.805.6417-.3967 1.4584-.4667 2.275-.1284.3034.1284.63.3034.98.5484l3.8734 2.7533c.42.2917.7466.665.9333 1.1083.175.4434.2566.8517.2566 1.26 0 .56-.1283 1.12-.3733 1.645s-.5483.98-.9333 1.4c-.665.735-1.3883 1.26-2.2283 1.5984-.805.3266-1.68.5016-2.6017.5016zm-13.83668-23.3333c-.64167 0-1.23667.28-1.80834.84-.525.50166-.91 1.05-1.14333 1.645-.245.60666-.36167 1.24833-.36167 1.93666 0 1.085.25667 2.26334.77 3.47664.525 1.2367 1.26 2.52 2.19334 3.8034.93333 1.2833 1.995 2.5316 3.16166 3.71 1.16672 1.155 2.42672 2.2283 3.72162 3.1733 1.26.9217 2.5551 1.6683 3.8384 2.205 1.995.8517 3.8617 1.05 5.4017.4083.595-.245 1.1199-.6183 1.5983-1.155.2683-.2916.4783-.6066.6533-.98.14-.2916.21-.595.21-.8983 0-.1867-.035-.3733-.1283-.5833-.0233-.0584-.105-.1984-.3267-.35l-3.8733-2.7534c-.2333-.1633-.4434-.28-.6417-.3616-.3033-.1167-.5016-.1284-.7583.035-.2333.1166-.4434.2916-.6767.525l-.8866.875c-.455.4433-1.155.5483-1.6917.35l-.315-.14c-.4783-.2567-1.0383-.6534-1.6567-1.1784-.5716-.4783-1.155-1.0266-1.9016-1.7616-.5834-.595-1.1434-1.2134-1.7384-1.89-.54832-.6417-.94498-1.19-1.18998-1.645l-.15167-.35c-.07-.2567-.09333-.4084-.09333-.5717 0-.42.15166-.7933.44333-1.085l.87505-.91c.2333-.23334.4083-.455.525-.65334.0933-.15166.1283-.28.1283-.39666 0-.09334-.035-.23334-.0933-.37334-.07-.19833-.1984-.39666-.3617-.63l-2.70668-3.82666c-.11667-.16334-.25667-.28-.43167-.36167-.18667-.08167-.385-.12833-.58333-.12833zm9.75338 14.3033-.1867.7934.315-.8167c-.0467-.0117-.0934 0-.1283.0233z"/><path d="m23.9173 7.875h-5.8333c-.4783 0-.875-.39667-.875-.875s.3967-.875.875-.875h5.8333c.4784 0 .875.39667.875.875s-.3966.875-.875.875z"/><path d="m21 10.7918c-.4783 0-.875-.3966-.875-.87497v-5.83333c0-.47834.3967-.875.875-.875s.875.39666.875.875v5.83333c0 .47837-.3967.87497-.875.87497z"/></g></svg>

<svg width="28" height="28" viewBox="0 0 28 28" fill="none" xmlns="http://www.w3.org/2000/svg">
<path d="M20.359 26.5418C19.0407 26.5418 17.6523 26.2268 16.2173 25.6202C14.8173 25.0252 13.4057 24.2085 12.029 23.2168C10.6523 22.2135 9.33398 21.0818 8.09732 19.8568C6.86065 18.6085 5.74065 17.2902 4.74898 15.9368C3.74565 14.5368 2.94065 13.1485 2.36898 11.7835C1.76232 10.3485 1.45898 8.9485 1.45898 7.63016C1.45898 6.72016 1.62232 5.85683 1.93732 5.05183C2.27565 4.21183 2.78898 3.4535 3.50065 2.7885C4.39898 1.9135 5.42565 1.4585 6.52232 1.4585C6.97732 1.4585 7.44398 1.5635 7.84065 1.75016C8.29565 1.96016 8.68065 2.27516 8.96065 2.69516L11.6673 6.51016C11.9123 6.8485 12.099 7.17516 12.2273 7.50183C12.379 7.85183 12.4607 8.20183 12.4607 8.54016C12.4607 8.9835 12.3323 9.41516 12.0873 9.8235C11.9123 10.1385 11.644 10.4768 11.3056 10.8152L10.5123 11.6435C10.524 11.6785 10.5357 11.7018 10.5473 11.7252C10.6873 11.9702 10.9673 12.3902 11.504 13.0202C12.064 13.6735 12.6123 14.2568 13.149 14.8168C13.849 15.5052 14.409 16.0302 14.9457 16.4735C15.6107 17.0335 16.0423 17.3135 16.299 17.4418L16.2757 17.5002L17.1273 16.6602C17.489 16.2985 17.839 16.0302 18.1773 15.8552C18.819 15.4585 19.6357 15.3885 20.4523 15.7268C20.7557 15.8552 21.0823 16.0302 21.4323 16.2752L25.3057 19.0285C25.7257 19.3202 26.0523 19.6935 26.239 20.1368C26.414 20.5802 26.4956 20.9885 26.4956 21.3968C26.4956 21.9568 26.3673 22.5168 26.1223 23.0418C25.8773 23.5668 25.574 24.0218 25.189 24.4418C24.524 25.1768 23.8007 25.7018 22.9607 26.0402C22.1557 26.3668 21.2807 26.5418 20.359 26.5418ZM6.52232 3.2085C5.88065 3.2085 5.28565 3.4885 4.71398 4.0485C4.18898 4.55016 3.80398 5.0985 3.57065 5.6935C3.32565 6.30016 3.20898 6.94183 3.20898 7.63016C3.20898 8.71516 3.46565 9.8935 3.97898 11.1068C4.50398 12.3435 5.23898 13.6268 6.17232 14.9102C7.10565 16.1935 8.16732 17.4418 9.33398 18.6202C10.5007 19.7752 11.7607 20.8485 13.0556 21.7935C14.3156 22.7152 15.6107 23.4618 16.894 23.9985C18.889 24.8502 20.7557 25.0485 22.2957 24.4068C22.8907 24.1618 23.4156 23.7885 23.894 23.2518C24.1623 22.9602 24.3723 22.6452 24.5473 22.2718C24.6873 21.9802 24.7573 21.6768 24.7573 21.3735C24.7573 21.1868 24.7223 21.0002 24.629 20.7902C24.6057 20.7318 24.524 20.5918 24.3023 20.4402L20.429 17.6868C20.1957 17.5235 19.9856 17.4068 19.7873 17.3252C19.484 17.2085 19.2857 17.1968 19.029 17.3602C18.7957 17.4768 18.5856 17.6518 18.3523 17.8852L17.4657 18.7602C17.0107 19.2035 16.3107 19.3085 15.774 19.1102L15.459 18.9702C14.9807 18.7135 14.4207 18.3168 13.8023 17.7918C13.2307 17.3135 12.6473 16.7652 11.9007 16.0302C11.3173 15.4352 10.7573 14.8168 10.1623 14.1402C9.61398 13.4985 9.21732 12.9502 8.97232 12.4952L8.82065 12.1452C8.75065 11.8885 8.72732 11.7368 8.72732 11.5735C8.72732 11.1535 8.87898 10.7802 9.17065 10.4885L10.0457 9.5785C10.279 9.34516 10.454 9.1235 10.5707 8.92516C10.664 8.7735 10.699 8.64516 10.699 8.5285C10.699 8.43516 10.664 8.29516 10.6057 8.15516C10.5357 7.95683 10.4073 7.7585 10.244 7.52516L7.53732 3.6985C7.42065 3.53516 7.28065 3.4185 7.10565 3.33683C6.91898 3.25516 6.72065 3.2085 6.52232 3.2085ZM16.2757 17.5118L16.089 18.3052L16.404 17.4885C16.3573 17.4768 16.3106 17.4885 16.2757 17.5118Z" fill="#4D4D4D"/>
<path d="M23.9173 7.875H18.084C17.6057 7.875 17.209 7.47833 17.209 7C17.209 6.52167 17.6057 6.125 18.084 6.125H23.9173C24.3957 6.125 24.7923 6.52167 24.7923 7C24.7923 7.47833 24.3957 7.875 23.9173 7.875Z" fill="#4D4D4D"/>
<path d="M21 10.7918C20.5217 10.7918 20.125 10.3952 20.125 9.91683V4.0835C20.125 3.60516 20.5217 3.2085 21 3.2085C21.4783 3.2085 21.875 3.60516 21.875 4.0835V9.91683C21.875 10.3952 21.4783 10.7918 21 10.7918Z" fill="#4D4D4D"/>
</svg>
